X:1
T:Title
%%score { 1 | 2 }
L:1/8
M:3/4
K:Ab
V:1 treble nm="Grand Piano"
V:2 bass 
V:1
 z2 z[Q:1/4=90] [Ec] [DB][CA] | [CE]3 [CF] [CG][CA] | [B,D]3 [Fd] cB | F3 G AB |[M:3/8] E3 | %5
 [Ec][DB][CA] |[M:3/4] [CE]3 F GA | B3 e [E=d][Ec] | [EB][Ec] [EG]3 [=DF] |[M:3/8] E3 | %10
 [CE][Ec][Ec] |[M:3/4] [Ec]3 [=D_c] [E=c][Fd] | B3 E [Gd][Gd] | [Gd]3 [_Gc] [=Gd]e |[M:3/8] c3 | %15
 cee |[M:3/4] e3 c A[_GA] | [Af]3 [FA] [EG][FA] | %18
[M:13/16] [Ee]/-[Ee]/-[Ee]-<[Ee][Ec]/-(3:2:2[Ec]/[Ec]/4[DB]3/2A |[M:3/8] [CA]3 |] %20
V:2
 z2 z [A,,A,] [A,,E,][A,,E,] | [A,,A,]3 [A,,A,] [A,,E,][A,,E,] | [E,G,]3 [E,G,] [E,G,E][E,G,D] | %3
 [E,G,D]3 [E,B,D] [E,F,D][E,G,D] |[M:3/8] [A,C]3 | [A,,A,][A,,E,][A,,E,] | %6
[M:3/4] [A,,A,]3 [A,CE] [G,B,E][F,B,=D] | [E,G,E]3 [G,,B,E] [A,,A,][=A,,_G,] | %8
 [B,,G,][B,,A,] [B,,B,]3 [B,,A,] |[M:3/8] [E,G,]3 | [A,,A,][A,,A,][A,,A,] | %11
[M:3/4] [A,,A,]3 [A,,A,] [A,,A,][A,,A,] | [E,G,D]3 [E,G,] [E,B,][E,B,] | %13
 [E,B,]3 [E,=A,] [E,B,][E,G,E] |[M:3/8] [A,E]3 | [A,E][A,CE][A,CE] | %16
[M:3/4] [_G,CA]3 [G,A,E] [F,CF][E,C] | [D,D]3 [D,D] [D,D][=D,_C] | %18
[M:13/16] [E,C]/-[E,C]/-[E,C]-<[E,C][E,A,][E,G,]3/2[E,C] |[M:3/8] [A,,E,]3 |] %20

